packages/kaspersky-hexa-ui-icons/src/iconsSVGs/24/ArrowRightMini.svg

<svg width="24" height="24" viewBox="0 0 24 24" fill="none" xmlns="http://www.w3.org/2000/svg">
<path fill-rule="evenodd" clip-rule="evenodd" d="M9.6227 8.07261C9.2378 8.46868 9.24685 9.10178 9.64292 9.48668L12.2256 11.9965L9.64198 14.5139C9.24642 14.8994 9.2382 15.5325 9.62362 15.928C10.009 16.3236 10.6421 16.3318 11.0377 15.9464L14.3574 12.7118C14.5507 12.5234 14.6597 12.2649 14.6595 11.9949C14.6594 11.725 14.5501 11.4666 14.3565 11.2784L11.0368 8.05238C10.6407 7.66748 10.0076 7.67654 9.6227 8.07261Z" fill="black"/>
</svg>

<svg xmlns="http://www.w3.org/2000/svg" width="24" height="24" fill="none" viewBox="0 0 24 24"><path fill="#000" fill-rule="evenodd" d="M9.6227 8.0726c-.385.396-.3758 1.0292.0202 1.414l2.5827 2.51-2.5836 2.5173c-.3956.3855-.4038 1.0186-.0184 1.4141.3854.3956 1.0185.4038 1.4141.0184l3.3197-3.2346a1 1 0 0 0-.001-1.4334l-3.3196-3.226c-.3961-.385-1.0292-.3759-1.4141.0202"/></svg>
